icons/calendar-outline.svg

<svg xmlns="http://www.w3.org/2000/svg" width="24" height="24" viewBox="0 0 24 24">
    <path fill="#3A3A47" fill-rule="evenodd" d="M16 2c.619 0 .95.27.995.812l.005.13V4h1c1.273 0 1.938.607 1.996 1.822L20 6v14c0 1.273-.607 1.938-1.822 1.996L18 22H6c-1.273 0-1.938-.607-1.996-1.822L4 20V6.004c0-1.275.607-1.942 1.822-2L6 4h1V3c-.002-.667.33-1 1-1 .621 0 .954.287.998.862L9.004 3v1H15V2.941c0-.627.333-.941 1-.941zm2 8H6v10h12V10zm-8.998 6H10c.667 0 1 .333 1 1 0 .619-.287.95-.862.995L10 18H9c-.667.001-1-.332-1-1 0-.62.289-.952.864-.995L9.002 16H10zM15 16c.667 0 1 .333 1 1s-.333 1-1 1h-1c-.667.001-1-.332-1-1 0-.668.335-1.001 1.002-1zm-5-4c.667 0 1 .333 1 1 0 .619-.287.95-.862.995L10 14H9c-.667.001-1-.332-1-1 0-.62.289-.952.864-.995L9.002 12H10zm5 0c.667 0 1 .333 1 1 0 .619-.287.95-.862.995L15 14h-1c-.667.001-1-.332-1-1 0-.62.289-.952.864-.995l.138-.005H15zm3-6H6v2h12V6z"/>
</svg>

<svg width="24" height="24" viewBox="0 0 24 24" fill="none" xmlns="http://www.w3.org/2000/svg">
<path d="M6 4H7V3C6.998 2.333 7.33 2 8 2C8.67 2 9.004 2.333 9.004 3V4H15V2.941C15 2.314 15.333 2 16 2C16.667 2 17 2.314 17 2.941V4H18C19.333 4 20 4.667 20 6V20C20 21.333 19.333 22 18 22H6C4.667 22 4 21.333 4 20V6.004C4 4.668 4.667 4 6 4ZM6 20H18V10H6V20ZM6 6V8H18V6H6ZM9 14C8.333 14.001 8 13.668 8 13C8 12.332 8.335 11.999 9.002 12H10C10.667 12 11 12.333 11 13C11 13.667 10.667 14 10 14H9ZM14 14C13.333 14.001 13 13.668 13 13C13 12.332 13.335 11.999 14.002 12H15C15.667 12 16 12.333 16 13C16 13.667 15.667 14 15 14H14ZM9 18C8.333 18.001 8 17.668 8 17C8 16.332 8.335 15.999 9.002 16H10C10.667 16 11 16.333 11 17C11 17.667 10.667 18 10 18H9ZM14 18C13.333 18.001 13 17.668 13 17C13 16.332 13.335 15.999 14.002 16H15C15.667 16 16 16.333 16 17C16 17.667 15.667 18 15 18H14Z" fill="#3A3A47"/>
</svg>
